assets/icons/icon_about.svg

<svg width="24" height="24" viewBox="0 0 24 24" fill="none"
    xmlns="http://www.w3.org/2000/svg">
    <path d="M12 1.5C6.20156 1.5 1.5 6.20156 1.5 12C1.5 17.7984 6.20156 22.5 12 22.5C17.7984 22.5 22.5 17.7984 22.5 12C22.5 6.20156 17.7984 1.5 12 1.5ZM12.75 17.0625C12.75 17.1656 12.6656 17.25 12.5625 17.25H11.4375C11.3344 17.25 11.25 17.1656 11.25 17.0625V10.6875C11.25 10.5844 11.3344 10.5 11.4375 10.5H12.5625C12.6656 10.5 12.75 10.5844 12.75 10.6875V17.0625ZM12 9C11.7056 8.99399 11.4253 8.87282 11.2192 8.6625C11.0132 8.45218 10.8977 8.16945 10.8977 7.875C10.8977 7.58055 11.0132 7.29782 11.2192 7.0875C11.4253 6.87718 11.7056 6.75601 12 6.75C12.2944 6.75601 12.5747 6.87718 12.7808 7.0875C12.9868 7.29782 13.1023 7.58055 13.1023 7.875C13.1023 8.16945 12.9868 8.45218 12.7808 8.6625C12.5747 8.87282 12.2944 8.99399 12 9Z" fill="#4F46E5"/>
</svg>

<svg fill="none" xmlns="http://www.w3.org/2000/svg" viewBox="0 0 24 24"><path d="M12 1.5C6.202 1.5 1.5 6.202 1.5 12S6.202 22.5 12 22.5 22.5 17.798 22.5 12 17.798 1.5 12 1.5m.75 15.563a.19.19 0 0 1-.187.187h-1.126a.19.19 0 0 1-.187-.187v-6.375c0-.104.084-.188.188-.188h1.124c.104 0 .188.084.188.188zM12 9a1.125 1.125 0 0 1 0-2.25A1.125 1.125 0 0 1 12 9" fill="#4F46E5"/></svg>
